X:583
T: SCHOENSTES KIND AUF DIESER ERDE
N: E0545
O: Europa, Mitteleuropa, Deutschland, Hessen, Odenwald, Lindenfels
R: Liebes - Lied
M: 4/4
L: 1/16
K: G
 | G6D2G4A4 | B3AB2c2B4A4
B6A2B3cd2e2 | d4c2B2B4A4
d6c2B4d4 | d6c2c4B4 | B2c2A4
d6c2 | B2e2d2c2B4A4 | G8z8
d6c2B4d4 | d6c2c4B4 | B2c2A4
d6c2 | B2e2d2c2B4A4 | G8z8

